; generated by Slic3r 1.2.9 on 2017-08-11 at 22:36:21

; external perimeters extrusion width = 0.40mm
; perimeters extrusion width = 0.68mm
; infill extrusion width = 1.28mm
; solid infill extrusion width = 0.68mm
; top infill extrusion width = 0.68mm

M107
M190 S70 ; set bed temperature
M104 S200 ; set temperature
G28 ; home all axes
G1 Z5 F5000 ; lift nozzle

M109 S200 ; wait for temperature to be reached
G21 ; set units to millimeters
G90 ; use absolute coordinates
M82 ; use absolute distances for extrusion
G92 E0
G1 Z0.400 F7800.000
G1 E-2.00000 F2400.00000
G92 E0
G1 X44.122 Y44.569 F7800.000
G1 E2.00000 F2400.00000
G1 X46.519 Y42.885 E2.34787 F1800.000
G1 X97.431 Y21.797 E8.89259
G1 X99.684 Y21.293 E9.16682
G1 X102.569 Y21.797 E9.51469
G1 X153.481 Y42.885 E16.05941 F1800.000
G1 X155.431 Y44.122 E16.33363
G1 X157.115 Y46.519 E16.68150
G1 X178.203 Y97.431 E23.22623
G1 X178.707 Y99.684 E23.50045
G1 X178.203 Y102.569 E23.84832
G1 X157.115 Y153.481 E30.39305
G1 X155.878 Y155.431 E30.66727
G1 X153.481 Y157.115 E31.01514
G1 X102.569 Y178.203 E37.55986
G1 X100.316 Y178.707 E37.83409
G1 X97.431 Y178.203 E38.18196
G1 X46.519 Y157.115 E44.72668
G1 X44.569 Y155.878 E45.00091
G1 X42.885 Y153.481 E45.34878
G1 X21.797 Y102.569 E51.89350
G1 X21.293 Y100.316 E52.16772
G1 X21.797 Y97.431 E52.51559
G1 X42.885 Y46.519 E59.06032
G1 X44.090 Y44.620 E59.32741
G1 E57.32741 F2400.00000
G92 E0
G1 X73.145 Y73.145 F7800.000
G1 E2.00000 F2400.00000
G1 X98.923 Y62.467 E5.31382 F1800.000
G1 X100.000 Y62.021 E5.45224 F1800.000
G1 X126.855 Y73.145 E8.90449
G1 X137.979 Y100.000 E12.35673
G1 X126.855 Y126.855 E15.80897
G1 X100.000 Y137.979 E19.26122
G1 X73.145 Y126.855 E22.71346
G1 X62.021 Y100.000 E26.16570
G1 X73.122 Y73.200 E29.61082
G1 X73.691 Y73.691 F7800.000
G1 X99.197 Y63.127 E32.88951 F1800.000
G1 X100.000 Y62.794 E32.99280 F1800.000
G1 X126.309 Y73.691 E36.37478
G1 X137.206 Y100.000 E39.75676
G1 X126.309 Y126.309 E43.13874
G1 X100.000 Y137.206 E46.52071
G1 X73.691 Y126.309 E49.90269
G1 X62.794 Y100.000 E53.28467
G1 X73.668 Y73.747 E56.65952
G1 X74.238 Y74.238 F7800.000
G1 X99.470 Y63.787 E59.90308 F1800.000
G1 X100.000 Y63.567 E59.97124 F1800.000
G1 X125.762 Y74.238 E63.28295
G1 X136.433 Y100.000 E66.59466
G1 X125.762 Y125.762 E69.90638
G1 X100.000 Y136.433 E73.21809
G1 X74.238 Y125.762 E76.52981
G1 X63.567 Y100.000 E79.84152
G1 X74.215 Y74.293 E83.14611
G1 X74.186 Y73.841 F7800.000
G1 X62.363 Y45.569 F7800.000
G1 X100.000 Y29.979 E87.98438 F1800.000
G1 X102.694 Y31.095 E88.33075
G1 X149.512 Y50.488 E94.34922 F1800.000
G1 X170.021 Y100.000 E100.71406
G1 X149.512 Y149.512 E107.07889
G1 X100.000 Y170.021 E113.44373
G1 X50.488 Y149.512 E119.80857
G1 X29.979 Y100.000 E126.17341
G1 X50.488 Y50.488 E132.53825
G1 X62.307 Y45.592 E134.05769
G1 X62.090 Y44.909 F7800.000
G1 X100.000 Y29.206 E138.93109 F1800.000
G1 X102.968 Y30.435 E139.31260
G1 X150.059 Y49.941 E145.36620 F1800.000
G1 X170.794 Y100.000 E151.80130
G1 X150.059 Y150.059 E158.23640
G1 X100.000 Y170.794 E164.67151
G1 X49.941 Y150.059 E171.10661
G1 X29.206 Y100.000 E177.54171
G1 X49.941 Y49.941 E183.97682
G1 X62.034 Y44.932 E185.53139
G1 X61.816 Y44.249 F7800.000
G1 X100.000 Y28.433 E190.43993 F1800.000
G1 X103.241 Y29.775 E190.85656
G1 X150.606 Y49.394 E196.94529 F1800.000
G1 X171.567 Y100.000 E203.45066
G1 X150.606 Y150.606 E209.95603
G1 X100.000 Y171.567 E216.46140
G1 X49.394 Y150.606 E222.96677
G1 X28.433 Y100.000 E229.47213
G1 X49.394 Y49.394 E235.97750
G1 X61.761 Y44.272 E237.56721
G1 X62.134 Y44.493 F7800.000
G1 X102.247 Y31.456 F7800.000
G1 X168.544 Y97.753 E248.71695 F1800.000
G1 X169.259 Y99.480 F7800.000
G1 X100.520 Y30.741 E260.27729 F1800.000
G1 X99.412 Y30.644 E260.40965
G1 X169.356 Y100.588 E272.17284
G1 X169.060 Y101.303 E272.26489
G1 X98.697 Y30.940 E284.09853
G1 X97.982 Y31.236 E284.19058
G1 X168.764 Y102.018 E296.09467
G1 X168.468 Y102.734 E296.18672
G1 X97.266 Y31.532 E308.16126
G1 X96.551 Y31.829 E308.25331
G1 X168.171 Y103.449 E320.29830
G1 X167.875 Y104.164 E320.39034
G1 X95.836 Y32.125 E332.50578
G1 X95.121 Y32.421 E332.59783
G1 X167.579 Y104.879 E344.78372
G1 X167.283 Y105.594 E344.87577
G1 X94.406 Y32.717 E357.13210
G1 X93.691 Y33.013 E357.22415
G1 X166.987 Y106.309 E369.55094
G1 X166.690 Y107.024 E369.64298
G1 X92.976 Y33.310 E382.04022
G1 X92.261 Y33.606 E382.13226
G1 X166.394 Y107.739 E394.59995
G1 X166.098 Y108.454 E394.69199
G1 X91.546 Y33.902 E407.23013
G1 X90.831 Y34.198 E407.32217
G1 X165.802 Y109.169 E419.93075
G1 X165.506 Y109.884 E420.02280
G1 X90.116 Y34.494 E432.70183
G1 X89.400 Y34.791 E432.79388
G1 X165.209 Y110.600 E445.54336
G1 X164.913 Y111.315 E445.63540
G1 X127.867 Y74.269 E451.86576
G1 X128.582 Y75.995 F7800.000
G1 X164.617 Y112.030 E457.92603 F1800.000
G1 X164.321 Y112.745 E458.01808
G1 X129.297 Y77.721 E463.90827
G1 X130.013 Y79.448 F7800.000
G1 X164.025 Y113.460 E469.62839 F1800.000
G1 X163.728 Y114.175 E469.72043
G1 X130.728 Y81.174 E475.27047
G1 X131.443 Y82.901 F7800.000
G1 X163.432 Y114.890 E480.65042 F1800.000
G1 X163.136 Y115.605 E480.74247
G1 X132.158 Y84.627 E485.95234
G1 X132.873 Y86.353 F7800.000
G1 X162.840 Y116.320 E490.99214 F1800.000
G1 X162.544 Y117.035 E491.08418
G1 X133.588 Y88.080 E495.95390
G1 X134.303 Y89.806 F7800.000
G1 X162.247 Y117.750 E500.65353 F1800.000
G1 X161.951 Y118.466 E500.74558
G1 X135.018 Y91.533 E505.27513
G1 X135.733 Y93.259 F7800.000
G1 X161.655 Y119.181 E509.63461 F1800.000
G1 X161.359 Y119.896 E509.72665
G1 X136.448 Y94.985 E513.91605
G1 X137.164 Y96.712 F7800.000
G1 X161.063 Y120.611 E517.93537 F1800.000
G1 X160.766 Y121.326 E518.02741
G1 X137.879 Y98.438 E521.87665
G1 X138.409 Y99.979 F7800.000
G1 X160.470 Y122.041 E525.58695 F1800.000
G1 X160.174 Y122.756 E525.67899
G1 X138.112 Y100.695 E529.38929
G1 X137.816 Y101.410 E529.48134
G1 X159.878 Y123.471 E533.19164
G1 X159.582 Y124.186 E533.28368
G1 X137.520 Y102.125 E536.99398
G1 X137.224 Y102.840 E537.08603
G1 X159.285 Y124.901 E540.79633
G1 X158.989 Y125.617 E540.88837
G1 X136.928 Y103.555 E544.59867
G1 X136.631 Y104.270 E544.69072
G1 X158.693 Y126.332 E548.40102
G1 X158.397 Y127.047 E548.49306
G1 X136.335 Y104.985 E552.20336
G1 X136.039 Y105.700 E552.29541
G1 X158.101 Y127.762 E556.00571
G1 X157.804 Y128.477 E556.09776
G1 X135.743 Y106.415 E559.80806
G1 X135.447 Y107.130 E559.90010
G1 X157.508 Y129.192 E563.61040
G1 X157.212 Y129.907 E563.70245
G1 X135.150 Y107.845 E567.41275
G1 X134.854 Y108.561 E567.50480
G1 X156.916 Y130.622 E571.21510
G1 X156.620 Y131.337 E571.30715
G1 X134.558 Y109.276 E575.01745
G1 X134.262 Y109.991 E575.10949
G1 X156.323 Y132.052 E578.81980
G1 X156.027 Y132.767 E578.91184
G1 X133.966 Y110.706 E582.62214
G1 X133.669 Y111.421 E582.71419
G1 X155.731 Y133.483 E586.42449
G1 X155.435 Y134.198 E586.51654
G1 X133.373 Y112.136 E590.22684
G1 X133.077 Y112.851 E590.31889
G1 X155.139 Y134.913 E594.02919
G1 X154.842 Y135.628 E594.12124
G1 X132.781 Y113.566 E597.83154
G1 X132.485 Y114.281 E597.92359
G1 X154.546 Y136.343 E601.63389
G1 X154.250 Y137.058 E601.72594
G1 X132.188 Y114.996 E605.43624
G1 X131.892 Y115.711 E605.52829
G1 X153.954 Y137.773 E609.23859
G1 X153.658 Y138.488 E609.33064
G1 X131.596 Y116.427 E613.04094
G1 X131.300 Y117.142 E613.13299
G1 X153.361 Y139.203 E616.84329
G1 X153.065 Y139.918 E616.93534
G1 X131.004 Y117.857 E620.64564
G1 X130.707 Y118.572 E620.73769
G1 X152.769 Y140.633 E624.44800
G1 X152.473 Y141.349 E624.54004
G1 X130.411 Y119.287 E628.25035
G1 X130.115 Y120.002 E628.34239
G1 X152.177 Y142.064 E632.05270
G1 X151.880 Y142.779 E632.14475
G1 X129.819 Y120.717 E635.85505
G1 X129.523 Y121.432 E635.94710
G1 X151.584 Y143.494 E639.65740
G1 X151.288 Y144.209 E639.74945
G1 X129.226 Y122.147 E643.45976
G1 X128.930 Y122.862 E643.55180
G1 X150.992 Y144.924 E647.26211
G1 X150.696 Y145.639 E647.35416
G1 X128.634 Y123.577 E651.06446
G1 X128.338 Y124.293 E651.15651
G1 X150.399 Y146.354 E654.86682
G1 X150.103 Y147.069 E654.95886
G1 X128.042 Y125.008 E658.66917
G1 X127.745 Y125.723 E658.76122
G1 X149.807 Y147.784 E662.47153
G1 X149.511 Y148.500 E662.56357
G1 X127.449 Y126.438 E666.27388
G1 X127.153 Y127.153 E666.36592
G1 X149.199 Y149.199 E670.07366
G1 X148.499 Y149.511 E670.16475
G1 X126.438 Y127.449 E673.87506
G1 X125.723 Y127.745 E673.96711
G1 X147.784 Y149.807 E677.67742
G1 X147.069 Y150.103 E677.76946
G1 X125.008 Y128.042 E681.47977
G1 X124.293 Y128.338 E681.57182
G1 X146.354 Y150.399 E685.28212
G1 X145.639 Y150.696 E685.37417
G1 X123.577 Y128.634 E689.08448
G1 X122.862 Y128.930 E689.17652
G1 X144.924 Y150.992 E692.88683
G1 X144.209 Y151.288 E692.97888
G1 X122.147 Y129.226 E696.68918
G1 X121.432 Y129.523 E696.78123
G1 X143.494 Y151.584 E700.49154
G1 X142.779 Y151.880 E700.58358
G1 X120.717 Y129.819 E704.29389
G1 X120.002 Y130.115 E704.38593
G1 X142.064 Y152.177 E708.09624
G1 X141.349 Y152.473 E708.18829
G1 X119.287 Y130.411 E711.89859
G1 X118.572 Y130.707 E711.99064
G1 X140.633 Y152.769 E715.70094
G1 X139.918 Y153.065 E715.79299
G1 X117.857 Y131.004 E719.50329
G1 X117.142 Y131.300 E719.59534
G1 X139.203 Y153.361 E723.30565
G1 X138.488 Y153.658 E723.39769
G1 X116.427 Y131.596 E727.10800
G1 X115.711 Y131.892 E727.20004
G1 X137.773 Y153.954 E730.91035
G1 X137.058 Y154.250 E731.00239
G1 X114.996 Y132.188 E734.71270
G1 X114.281 Y132.485 E734.80474
G1 X136.343 Y154.546 E738.51505
G1 X135.628 Y154.842 E738.60709
G1 X113.566 Y132.781 E742.31740
G1 X112.851 Y133.077 E742.40944
G1 X134.913 Y155.139 E746.11975
G1 X134.198 Y155.435 E746.21179
G1 X112.136 Y133.373 E749.92209
G1 X111.421 Y133.669 E750.01414
G1 X133.482 Y155.731 E753.72444
G1 X132.767 Y156.027 E753.81649
G1 X110.706 Y133.966 E757.52679
G1 X109.991 Y134.262 E757.61884
G1 X132.052 Y156.323 E761.32914
G1 X131.337 Y156.620 E761.42119
G1 X109.276 Y134.558 E765.13149
G1 X108.560 Y134.854 E765.22353
G1 X130.622 Y156.916 E768.93384
G1 X129.907 Y157.212 E769.02588
G1 X107.845 Y135.150 E772.73618
G1 X107.130 Y135.447 E772.82823
G1 X129.192 Y157.508 E776.53853
G1 X128.477 Y157.804 E776.63058
G1 X106.415 Y135.743 E780.34088
G1 X105.700 Y136.039 E780.43292
G1 X127.762 Y158.101 E784.14322
G1 X127.047 Y158.397 E784.23527
G1 X104.985 Y136.335 E787.94557
G1 X104.270 Y136.631 E788.03762
G1 X126.332 Y158.693 E791.74792
G1 X125.616 Y158.989 E791.83996
G1 X103.555 Y136.928 E795.55026
G1 X102.840 Y137.224 E795.64231
G1 X124.901 Y159.285 E799.35261
G1 X124.186 Y159.582 E799.44465
G1 X102.125 Y137.520 E803.15495
G1 X101.410 Y137.816 E803.24700
G1 X123.471 Y159.878 E806.95730
G1 X122.756 Y160.174 E807.04934
G1 X100.694 Y138.112 E810.75964
G1 X99.979 Y138.409 E810.85169
G1 X122.041 Y160.470 E814.56199
G1 X121.326 Y160.766 E814.65403
G1 X98.438 Y137.879 E818.50328
G1 X96.712 Y137.164 F7800.000
G1 X120.611 Y161.063 E822.52261 F1800.000
G1 X119.896 Y161.359 E822.61465
G1 X94.985 Y136.448 E826.80406
G1 X93.259 Y135.733 F7800.000
G1 X119.181 Y161.655 E831.16355 F1800.000
G1 X118.466 Y161.951 E831.25559
G1 X91.533 Y135.018 E835.78516
G1 X89.806 Y134.303 F7800.000
G1 X117.750 Y162.247 E840.48481 F1800.000
G1 X117.035 Y162.544 E840.57685
G1 X88.080 Y133.588 E845.44658
G1 X86.353 Y132.873 F7800.000
G1 X116.320 Y162.840 E850.48639 F1800.000
G1 X115.605 Y163.136 E850.57843
G1 X84.627 Y132.158 E855.78832
G1 X82.901 Y131.443 F7800.000
G1 X114.890 Y163.432 E861.16828 F1800.000
G1 X114.175 Y163.728 E861.26033
G1 X81.174 Y130.728 E866.81038
G1 X79.448 Y130.013 F7800.000
G1 X113.460 Y164.025 E872.53050 F1800.000
G1 X112.745 Y164.321 E872.62255
G1 X77.721 Y129.297 E878.51275
G1 X75.995 Y128.582 F7800.000
G1 X112.030 Y164.617 E884.57304 F1800.000
G1 X111.315 Y164.913 E884.66509
G1 X74.269 Y127.867 E890.89545
G1 X72.133 Y125.731 F7800.000
G1 X35.087 Y88.685 E897.12582 F1800.000
G1 X34.791 Y89.400 E897.21786
G1 X110.600 Y165.209 E909.96734
G1 X109.884 Y165.506 E910.05938
G1 X34.494 Y90.116 E922.73841
G1 X34.198 Y90.831 E922.83046
G1 X109.169 Y165.802 E935.43903
G1 X108.454 Y166.098 E935.53108
G1 X33.902 Y91.546 E948.06921
G1 X33.606 Y92.261 E948.16125
G1 X107.739 Y166.394 E960.62893
G1 X107.024 Y166.690 E960.72098
G1 X33.310 Y92.976 E973.11821
G1 X33.013 Y93.691 E973.21026
G1 X106.309 Y166.987 E985.53704
G1 X105.594 Y167.283 E985.62908
G1 X32.717 Y94.406 E997.88542
G1 X32.421 Y95.121 E997.97746
G1 X104.879 Y167.579 E1010.16335
G1 X104.164 Y167.875 E1010.25539
G1 X32.125 Y95.836 E1022.37083
G1 X31.829 Y96.551 E1022.46287
G1 X103.449 Y168.171 E1034.50786
G1 X102.733 Y168.468 E1034.59991
G1 X31.532 Y97.267 E1046.57444
G1 X31.236 Y97.982 E1046.66649
G1 X102.018 Y168.764 E1058.57058
G1 X101.303 Y169.060 E1058.66262
G1 X30.940 Y98.697 E1070.49626
G1 X30.644 Y99.412 E1070.58831
G1 X100.588 Y169.356 E1082.35150
G1 X99.479 Y169.259 E1082.48387
G1 X30.741 Y100.521 E1094.04418
G1 X31.456 Y102.247 F7800.000
G1 X97.753 Y168.544 E1105.19389 F1800.000
G1 X96.027 Y167.829 F7800.000
G1 X32.171 Y103.973 E1115.93300 F1800.000
G1 X32.887 Y105.700 F7800.000
G1 X94.300 Y167.113 E1126.26149 F1800.000
G1 X92.574 Y166.398 F7800.000
G1 X33.602 Y107.426 E1136.17939 F1800.000
G1 X34.317 Y109.153 F7800.000
G1 X90.847 Y165.683 E1145.68667 F1800.000
G1 X89.121 Y164.968 F7800.000
G1 X35.032 Y110.879 E1154.78335 F1800.000
G1 X35.747 Y112.605 F7800.000
G1 X87.395 Y164.253 E1163.46943 F1800.000
G1 X85.668 Y163.538 F7800.000
G1 X36.462 Y114.332 E1171.74490 F1800.000
G1 X37.177 Y116.058 F7800.000
G1 X83.942 Y162.823 E1179.60976 F1800.000
G1 X82.216 Y162.108 F7800.000
G1 X37.892 Y117.784 E1187.06402 F1800.000
G1 X38.607 Y119.511 F7800.000
G1 X80.489 Y161.393 E1194.10768 F1800.000
G1 X78.763 Y160.678 F7800.000
G1 X39.322 Y121.237 E1200.74072 F1800.000
G1 X40.037 Y122.964 F7800.000
G1 X77.036 Y159.963 E1206.96317 F1800.000
G1 X75.310 Y159.247 F7800.000
G1 X40.753 Y124.690 E1212.77500 F1800.000
G1 X41.468 Y126.416 F7800.000
G1 X73.584 Y158.532 E1218.17623 F1800.000
G1 X71.857 Y157.817 F7800.000
G1 X42.183 Y128.143 E1223.16686 F1800.000
G1 X42.898 Y129.869 F7800.000
G1 X70.131 Y157.102 E1227.74688 F1800.000
G1 X68.404 Y156.387 F7800.000
G1 X43.613 Y131.596 E1231.91629 F1800.000
G1 X44.328 Y133.322 F7800.000
G1 X66.678 Y155.672 E1235.67510 F1800.000
G1 X64.952 Y154.957 F7800.000
G1 X45.043 Y135.048 E1239.02331 F1800.000
G1 X45.758 Y136.775 F7800.000
G1 X63.225 Y154.242 E1241.96090 F1800.000
G1 X61.499 Y153.527 F7800.000
G1 X46.473 Y138.501 E1244.48790 F1800.000
G1 X47.188 Y140.228 F7800.000
G1 X59.772 Y152.812 E1246.60428 F1800.000
G1 X58.046 Y152.097 F7800.000
G1 X47.903 Y141.954 E1248.31006 F1800.000
G1 X48.619 Y143.680 F7800.000
G1 X56.320 Y151.381 E1249.60524 F1800.000
G1 X54.593 Y150.666 F7800.000
G1 X49.334 Y145.407 E1250.48981 F1800.000
G1 X50.049 Y147.133 F7800.000
G1 X52.867 Y149.951 E1250.96377 F1800.000
G1 X51.141 Y149.236 F7800.000
G1 X50.764 Y148.859 E1251.02713 F1800.000
G1 X71.418 Y124.005 F7800.000
G1 X35.383 Y87.970 E1257.08742 F1800.000
G1 X35.679 Y87.255 E1257.17946
G1 X70.703 Y122.279 E1263.06967
G1 X69.987 Y120.552 F7800.000
G1 X35.975 Y86.540 E1268.78979 F1800.000
G1 X36.272 Y85.825 E1268.88184
G1 X69.272 Y118.826 E1274.43188
G1 X68.557 Y117.099 F7800.000
G1 X36.568 Y85.110 E1279.81185 F1800.000
G1 X36.864 Y84.395 E1279.90390
G1 X67.842 Y115.373 E1285.11378
G1 X67.127 Y113.647 F7800.000
G1 X37.160 Y83.680 E1290.15359 F1800.000
G1 X37.456 Y82.965 E1290.24563
G1 X66.412 Y111.920 E1295.11536
G1 X65.697 Y110.194 F7800.000
G1 X37.753 Y82.250 E1299.81501 F1800.000
G1 X38.049 Y81.534 E1299.90705
G1 X64.982 Y108.467 E1304.43662
G1 X64.267 Y106.741 F7800.000
G1 X38.345 Y80.819 E1308.79611 F1800.000
G1 X38.641 Y80.104 E1308.88815
G1 X63.552 Y105.015 E1313.07756
G1 X62.836 Y103.288 F7800.000
G1 X38.937 Y79.389 E1317.09689 F1800.000
G1 X39.234 Y78.674 E1317.18893
G1 X62.121 Y101.562 E1321.03818
G1 X61.591 Y100.021 F7800.000
G1 X39.530 Y77.959 E1324.74848 F1800.000
G1 X39.826 Y77.244 E1324.84052
G1 X61.888 Y99.306 E1328.55082
G1 X62.184 Y98.590 E1328.64287
G1 X40.122 Y76.529 E1332.35317
G1 X40.418 Y75.814 E1332.44522
G1 X62.480 Y97.875 E1336.15552
G1 X62.776 Y97.160 E1336.24756
G1 X40.715 Y75.099 E1339.95786
G1 X41.011 Y74.384 E1340.04991
G1 X63.072 Y96.445 E1343.76021
G1 X63.369 Y95.730 E1343.85225
