; generated by Slic3r 1.2.9 on 2017-08-13 at 20:19:03

; external perimeters extrusion width = 0.40mm
; perimeters extrusion width = 0.68mm
; infill extrusion width = 1.28mm
; solid infill extrusion width = 0.68mm
; top infill extrusion width = 0.68mm

M107
M190 S70 ; set bed temperature
M104 S200 ; set temperature
G28 ; home all axes
G1 Z5 F5000 ; lift nozzle

M109 S200 ; wait for temperature to be reached
G21 ; set units to millimeters
G90 ; use absolute coordinates
M82 ; use absolute distances for extrusion
G92 E0
G1 Z0.400 F7800.000
G1 E-2.00000 F2400.00000
G92 E0
G1 X54.479 Y52.103 F7800.000
G1 E2.00000 F2400.00000
G1 X76.232 Y29.359 E5.73772 F1800.000
G1 X78.091 Y27.990 E6.01195
G1 X81.084 Y27.286 E6.37714
G1 X147.913 Y27.286 E14.31410
G1 X150.187 Y27.683 E14.58832
G1 X152.193 Y28.827 E14.86255 F1800.000
G1 X153.692 Y30.583 E15.13677
G1 X154.508 Y32.743 E15.41100
G1 X154.627 Y33.991 E15.55985
G1 X154.627 Y166.012 E31.23943
G1 X154.226 Y168.286 E31.51365
G1 X153.078 Y170.290 E31.78788
G1 X151.319 Y171.786 E32.06210
G1 X149.158 Y172.598 E32.33633
G1 X147.913 Y172.714 E32.48484
G1 X37.090 Y172.714 E45.64676
G1 X34.815 Y172.317 E45.92098
G1 X32.810 Y171.173 E46.19521
G1 X31.310 Y169.417 E46.46943
G1 X30.494 Y167.257 E46.74366
G1 X30.376 Y166.000 E46.89362
G1 X30.376 Y80.000 E57.10743
G1 X30.773 Y77.725 E57.38165
G1 X32.238 Y75.359 E57.71216
G1 X54.438 Y52.147 E61.52685
G1 E59.52685 F2400.00000
G92 E0
G1 X102.096 Y84.172 F7800.000
G1 E2.00000 F2400.00000
G1 X82.912 Y84.172 E4.27840 F1800.000
G1 X82.912 Y81.828 E4.55671
G1 X102.093 Y81.828 E6.83474
G1 X102.096 Y84.112 E7.10593
G1 X82.885 Y84.886 F7800.000
G1 X82.885 Y115.114 E10.69600 F1800.000
G1 X83.885 Y115.114 E10.81477
G1 X83.885 Y117.614 E11.11168
G1 X102.809 Y117.614 E13.35916
G1 X102.807 Y118.886 E13.51019
G1 X82.198 Y118.886 E15.95777
G1 X82.198 Y81.114 E20.44373
G1 X102.806 Y81.114 E22.89128
G1 X102.811 Y84.886 E23.33922
G1 X82.945 Y84.886 E25.69860
G1 X83.599 Y85.600 F7800.000
G1 X83.599 Y89.400 E26.14991 F1800.000
G1 X84.599 Y89.400 E26.26868
G1 X84.599 Y90.600 E26.41120
G1 X83.599 Y90.600 E26.52997
G1 X83.599 Y94.400 E26.98128
G1 X84.599 Y94.400 E27.10005
G1 X84.599 Y95.600 E27.24257
G1 X83.599 Y95.600 E27.36134
G1 X83.599 Y99.400 E27.81265
G1 X84.599 Y99.400 E27.93142
G1 X84.599 Y100.600 E28.07394
G1 X83.599 Y100.600 E28.19271
G1 X83.599 Y104.400 E28.64402
G1 X84.599 Y104.400 E28.76279
G1 X84.599 Y105.600 E28.90531
G1 X83.599 Y105.600 E29.02408
G1 X83.599 Y109.400 E29.47539
G1 X84.599 Y109.400 E29.59416
G1 X84.599 Y110.600 E29.73668
G1 X83.599 Y110.600 E29.85545
G1 X83.599 Y114.400 E30.30676
G1 X84.599 Y114.400 E30.42553
G1 X84.599 Y116.900 E30.72245
G1 X103.524 Y116.900 E32.97006
G1 X103.520 Y119.600 E33.29073
G1 X81.484 Y119.600 E35.90781
G1 X81.484 Y80.400 E40.56340
G1 X103.519 Y80.400 E43.18046
G1 X103.525 Y85.600 E43.79804
G1 X83.659 Y85.600 E46.15747
G1 X83.199 Y85.600 F7800.000
G1 X83.348 Y83.393 F7800.000
G1 X83.691 Y83.736 E46.21798 F1800.000
G1 X84.752 Y83.736 E46.35035
G1 X83.348 Y82.332 E46.59806
G1 X84.340 Y82.264 E46.72218
G1 X85.813 Y83.736 E46.98195
G1 X86.873 Y83.736 E47.11432
G1 X85.401 Y82.264 E47.37409
G1 X86.462 Y82.264 E47.50645
G1 X87.934 Y83.736 E47.76623
G1 X88.995 Y83.736 E47.89859
G1 X87.523 Y82.264 E48.15836
G1 X88.584 Y82.264 E48.29073
G1 X90.056 Y83.736 E48.55050
G1 X91.117 Y83.736 E48.68287
G1 X89.645 Y82.264 E48.94264
G1 X90.706 Y82.264 E49.07500
G1 X92.178 Y83.736 E49.33478
G1 X93.239 Y83.736 E49.46714
G1 X91.767 Y82.264 E49.72691
G1 X92.828 Y82.264 E49.85928
G1 X94.300 Y83.736 E50.11905
G1 X95.361 Y83.736 E50.25141
G1 X93.889 Y82.264 E50.51119
G1 X94.950 Y82.264 E50.64355
G1 X96.422 Y83.736 E50.90332
G1 X97.483 Y83.736 E51.03569
G1 X96.011 Y82.264 E51.29546
G1 X97.072 Y82.264 E51.42782
G1 X98.544 Y83.736 E51.68760
G1 X99.605 Y83.736 E51.81996
G1 X98.133 Y82.264 E52.07973
G1 X99.194 Y82.264 E52.21210
G1 X100.666 Y83.736 E52.47187
G1 X101.660 Y83.669 E52.59617
G1 X100.254 Y82.264 E52.84415
G1 X101.315 Y82.264 E52.97651
G1 X101.658 Y82.607 E53.03704
G1 X84.084 Y83.000 F7800.000
G1 X82.999 Y84.085 F7800.000
G1 X82.541 Y105.000 F7800.000
G1 X82.999 Y115.915 F7800.000
G1 X83.102 Y117.982 F7800.000
G1 X83.999 Y118.250 F7800.000
G1 X102.172 Y118.250 F7800.000
G1 X102.451 Y118.250 F7800.000
G1 X83.528 Y118.250 E57.80186 F1800.000
G1 X83.044 Y118.040 E57.93472
G1 X83.041 Y115.471 E58.58153
G1 E56.58153 F2400.00000
G92 E0
G1 X80.084 Y79.586 F7800.000
G1 X78.018 Y77.000 F7800.000
G1 X77.693 Y76.674 F7800.000
G1 X75.367 Y79.000 F7800.000
G1 X38.918 Y84.172 F7800.000
G1 E2.00000 F2400.00000
G1 X38.918 Y81.828 E2.27831 F1800.000
G1 X58.099 Y81.828 E4.55634
G1 X58.102 Y84.172 E4.83465
G1 X38.978 Y84.172 E7.10593
G1 X38.891 Y84.886 F7800.000
G1 X38.891 Y115.114 E10.69600 F1800.000
G1 X39.891 Y115.114 E10.81477
G1 X39.891 Y117.614 E11.11168
G1 X58.815 Y117.614 E13.35916
G1 X58.813 Y118.886 E13.51019
G1 X38.204 Y118.886 E15.95777
G1 X38.204 Y81.114 E20.44373
G1 X58.812 Y81.114 E22.89128
G1 X58.817 Y84.886 E23.33922
G1 X38.951 Y84.886 E25.69860
G1 X39.605 Y85.600 F7800.000
G1 X39.605 Y89.400 E26.14991 F1800.000
G1 X40.605 Y89.400 E26.26868
G1 X40.605 Y90.600 E26.41120
G1 X39.605 Y90.600 E26.52997
G1 X39.605 Y94.400 E26.98128
G1 X40.605 Y94.400 E27.10005
G1 X40.605 Y95.600 E27.24257
G1 X39.605 Y95.600 E27.36134
G1 X39.605 Y99.400 E27.81265
G1 X40.605 Y99.400 E27.93142
G1 X40.605 Y100.600 E28.07394
G1 X39.605 Y100.600 E28.19271
G1 X39.605 Y104.400 E28.64402
G1 X40.605 Y104.400 E28.76279
G1 X40.605 Y105.600 E28.90531
G1 X39.605 Y105.600 E29.02408
G1 X39.605 Y109.400 E29.47539
G1 X40.605 Y109.400 E29.59416
G1 X40.605 Y110.600 E29.73668
G1 X39.605 Y110.600 E29.85545
G1 X39.605 Y114.400 E30.30676
G1 X40.605 Y114.400 E30.42553
G1 X40.605 Y116.900 E30.72245
G1 X59.530 Y116.900 E32.97006
G1 X59.526 Y119.600 E33.29073
G1 X37.490 Y119.600 E35.90781
G1 X37.490 Y80.400 E40.56340
G1 X59.525 Y80.400 E43.18046
G1 X59.531 Y85.600 E43.79804
G1 X39.665 Y85.600 E46.15747
G1 X39.205 Y85.600 F7800.000
G1 X39.354 Y83.393 F7800.000
G1 X39.697 Y83.736 E46.21798 F1800.000
G1 X40.758 Y83.736 E46.35035
G1 X39.354 Y82.332 E46.59806
G1 X40.346 Y82.264 E46.72218
G1 X41.819 Y83.736 E46.98195
G1 X42.879 Y83.736 E47.11432
G1 X41.407 Y82.264 E47.37409
G1 X42.468 Y82.264 E47.50645
G1 X43.940 Y83.736 E47.76623
G1 X45.001 Y83.736 E47.89859
G1 X43.529 Y82.264 E48.15836
G1 X44.590 Y82.264 E48.29073
G1 X46.062 Y83.736 E48.55050
G1 X47.123 Y83.736 E48.68287
G1 X45.651 Y82.264 E48.94264
G1 X46.712 Y82.264 E49.07500
G1 X48.184 Y83.736 E49.33478
G1 X49.245 Y83.736 E49.46714
G1 X47.773 Y82.264 E49.72691
G1 X48.834 Y82.264 E49.85928
G1 X50.306 Y83.736 E50.11905
G1 X51.367 Y83.736 E50.25141
G1 X49.895 Y82.264 E50.51119
G1 X50.956 Y82.264 E50.64355
G1 X52.428 Y83.736 E50.90332
G1 X53.489 Y83.736 E51.03569
G1 X52.017 Y82.264 E51.29546
G1 X53.078 Y82.264 E51.42782
G1 X54.550 Y83.736 E51.68760
G1 X55.611 Y83.736 E51.81996
G1 X54.139 Y82.264 E52.07973
G1 X55.200 Y82.264 E52.21210
G1 X56.672 Y83.736 E52.47187
G1 X57.666 Y83.669 E52.59617
G1 X56.260 Y82.264 E52.84415
G1 X57.321 Y82.264 E52.97651
G1 X57.664 Y82.607 E53.03704
G1 X40.090 Y83.000 F7800.000
G1 X39.005 Y84.085 F7800.000
G1 X38.547 Y105.000 F7800.000
G1 X39.005 Y115.915 F7800.000
G1 X39.108 Y117.982 F7800.000
G1 X40.005 Y118.250 F7800.000
G1 X58.178 Y118.250 F7800.000
G1 X58.457 Y118.250 F7800.000
G1 X39.534 Y118.250 E57.80186 F1800.000
G1 X39.050 Y118.040 E57.93472
G1 X39.047 Y115.471 E58.58153
G1 E56.58153 F2400.00000
G92 E0
G1 X36.676 Y121.000 F7800.000
G1 X36.676 Y121.000 F7800.000
G1 X36.676 Y123.000 F7800.000
G1 X36.676 Y125.000 F7800.000
G1 X38.918 Y130.172 F7800.000
G1 E2.00000 F2400.00000
G1 X38.918 Y127.828 E2.27831 F1800.000
G1 X58.099 Y127.828 E4.55634
G1 X58.102 Y130.172 E4.83465
G1 X38.978 Y130.172 E7.10593
G1 X38.891 Y130.886 F7800.000
G1 X38.891 Y161.114 E10.69600 F1800.000
G1 X39.891 Y161.114 E10.81477
G1 X39.891 Y163.614 E11.11168
G1 X58.815 Y163.614 E13.35916
G1 X58.813 Y164.886 E13.51019
G1 X38.204 Y164.886 E15.95777
G1 X38.204 Y127.114 E20.44373
G1 X58.812 Y127.114 E22.89128
G1 X58.817 Y130.886 E23.33922
G1 X38.951 Y130.886 E25.69860
G1 X39.605 Y131.600 F7800.000
G1 X39.605 Y135.400 E26.14991 F1800.000
G1 X40.605 Y135.400 E26.26868
G1 X40.605 Y136.600 E26.41120
G1 X39.605 Y136.600 E26.52997
G1 X39.605 Y140.400 E26.98128
G1 X40.605 Y140.400 E27.10005
G1 X40.605 Y141.600 E27.24257
G1 X39.605 Y141.600 E27.36134
G1 X39.605 Y145.400 E27.81265
G1 X40.605 Y145.400 E27.93142
G1 X40.605 Y146.600 E28.07394
G1 X39.605 Y146.600 E28.19271
G1 X39.605 Y150.400 E28.64402
G1 X40.605 Y150.400 E28.76279
G1 X40.605 Y151.600 E28.90531
G1 X39.605 Y151.600 E29.02408
G1 X39.605 Y155.400 E29.47539
G1 X40.605 Y155.400 E29.59416
G1 X40.605 Y156.600 E29.73668
G1 X39.605 Y156.600 E29.85545
G1 X39.605 Y160.400 E30.30676
G1 X40.605 Y160.400 E30.42553
G1 X40.605 Y162.900 E30.72245
G1 X59.530 Y162.900 E32.97006
G1 X59.526 Y165.600 E33.29073
G1 X37.490 Y165.600 E35.90781
G1 X37.490 Y126.400 E40.56340
G1 X59.525 Y126.400 E43.18046
G1 X59.531 Y131.600 E43.79804
G1 X39.665 Y131.600 E46.15747
G1 X39.205 Y131.600 F7800.000
G1 X39.354 Y129.393 F7800.000
G1 X39.697 Y129.736 E46.21798 F1800.000
G1 X40.758 Y129.736 E46.35035
G1 X39.354 Y128.332 E46.59806
G1 X40.346 Y128.264 E46.72218
G1 X41.819 Y129.736 E46.98195
G1 X42.879 Y129.736 E47.11432
G1 X41.407 Y128.264 E47.37409
G1 X42.468 Y128.264 E47.50645
G1 X43.940 Y129.736 E47.76623
G1 X45.001 Y129.736 E47.89859
G1 X43.529 Y128.264 E48.15836
G1 X44.590 Y128.264 E48.29073
G1 X46.062 Y129.736 E48.55050
G1 X47.123 Y129.736 E48.68287
G1 X45.651 Y128.264 E48.94264
G1 X46.712 Y128.264 E49.07500
G1 X48.184 Y129.736 E49.33478
G1 X49.245 Y129.736 E49.46714
G1 X47.773 Y128.264 E49.72691
G1 X48.834 Y128.264 E49.85928
G1 X50.306 Y129.736 E50.11905
G1 X51.367 Y129.736 E50.25141
G1 X49.895 Y128.264 E50.51119
G1 X50.956 Y128.264 E50.64355
G1 X52.428 Y129.736 E50.90332
G1 X53.489 Y129.736 E51.03569
G1 X52.017 Y128.264 E51.29546
G1 X53.078 Y128.264 E51.42782
G1 X54.550 Y129.736 E51.68760
G1 X55.611 Y129.736 E51.81996
G1 X54.139 Y128.264 E52.07973
G1 X55.200 Y128.264 E52.21210
G1 X56.672 Y129.736 E52.47187
G1 X57.666 Y129.669 E52.59617
G1 X56.260 Y128.264 E52.84415
G1 X57.321 Y128.264 E52.97651
G1 X57.664 Y128.607 E53.03704
G1 X40.090 Y129.000 F7800.000
G1 X39.005 Y130.085 F7800.000
G1 X38.547 Y151.000 F7800.000
G1 X39.005 Y161.915 F7800.000
G1 X39.108 Y163.982 F7800.000
G1 X40.005 Y164.250 F7800.000
G1 X58.178 Y164.250 F7800.000
G1 X58.457 Y164.250 F7800.000
G1 X39.534 Y164.250 E57.80186 F1800.000
G1 X39.050 Y164.040 E57.93472
G1 X39.047 Y161.471 E58.58153
G1 E56.58153 F2400.00000
G92 E0
G1 X75.953 Y125.586 F7800.000
G1 X75.953 Y125.586 F7800.000
G1 X78.018 Y125.586 F7800.000
G1 X80.084 Y125.586 F7800.000
G1 X82.912 Y130.172 F7800.000
G1 E2.00000 F2400.00000
G1 X82.912 Y127.828 E2.27831 F1800.000
G1 X102.093 Y127.828 E4.55634
G1 X102.096 Y130.172 E4.83465
G1 X82.972 Y130.172 E7.10593
G1 X82.885 Y130.886 F7800.000
G1 X82.885 Y161.114 E10.69600 F1800.000
G1 X83.885 Y161.114 E10.81477
G1 X83.885 Y163.614 E11.11168
G1 X102.809 Y163.614 E13.35916
G1 X102.807 Y164.886 E13.51019
G1 X82.198 Y164.886 E15.95777
G1 X82.198 Y127.114 E20.44373
G1 X102.806 Y127.114 E22.89128
G1 X102.811 Y130.886 E23.33922
G1 X82.945 Y130.886 E25.69860
G1 X83.599 Y131.600 F7800.000
G1 X83.599 Y135.400 E26.14991 F1800.000
G1 X84.599 Y135.400 E26.26868
G1 X84.599 Y136.600 E26.41120
G1 X83.599 Y136.600 E26.52997
G1 X83.599 Y140.400 E26.98128
G1 X84.599 Y140.400 E27.10005
G1 X84.599 Y141.600 E27.24257
G1 X83.599 Y141.600 E27.36134
G1 X83.599 Y145.400 E27.81265
G1 X84.599 Y145.400 E27.93142
G1 X84.599 Y146.600 E28.07394
G1 X83.599 Y146.600 E28.19271
G1 X83.599 Y150.400 E28.64402
G1 X84.599 Y150.400 E28.76279
G1 X84.599 Y151.600 E28.90531
G1 X83.599 Y151.600 E29.02408
G1 X83.599 Y155.400 E29.47539
G1 X84.599 Y155.400 E29.59416
G1 X84.599 Y156.600 E29.73668
G1 X83.599 Y156.600 E29.85545
G1 X83.599 Y160.400 E30.30676
G1 X84.599 Y160.400 E30.42553
G1 X84.599 Y162.900 E30.72245
G1 X103.524 Y162.900 E32.97006
G1 X103.520 Y165.600 E33.29073
G1 X81.484 Y165.600 E35.90781
G1 X81.484 Y126.400 E40.56340
G1 X103.519 Y126.400 E43.18046
G1 X103.525 Y131.600 E43.79804
G1 X83.659 Y131.600 E46.15747
G1 X83.199 Y131.600 F7800.000
G1 X83.348 Y129.393 F7800.000
G1 X83.691 Y129.736 E46.21798 F1800.000
G1 X84.752 Y129.736 E46.35035
G1 X83.348 Y128.332 E46.59806
G1 X84.340 Y128.264 E46.72218
G1 X85.813 Y129.736 E46.98195
G1 X86.873 Y129.736 E47.11432
G1 X85.401 Y128.264 E47.37409
G1 X86.462 Y128.264 E47.50645
G1 X87.934 Y129.736 E47.76623
G1 X88.995 Y129.736 E47.89859
G1 X87.523 Y128.264 E48.15836
G1 X88.584 Y128.264 E48.29073
G1 X90.056 Y129.736 E48.55050
G1 X91.117 Y129.736 E48.68287
G1 X89.645 Y128.264 E48.94264
G1 X90.706 Y128.264 E49.07500
G1 X92.178 Y129.736 E49.33478
G1 X93.239 Y129.736 E49.46714
G1 X91.767 Y128.264 E49.72691
G1 X92.828 Y128.264 E49.85928
G1 X94.300 Y129.736 E50.11905
G1 X95.361 Y129.736 E50.25141
G1 X93.889 Y128.264 E50.51119
G1 X94.950 Y128.264 E50.64355
G1 X96.422 Y129.736 E50.90332
G1 X97.483 Y129.736 E51.03569
G1 X96.011 Y128.264 E51.29546
G1 X97.072 Y128.264 E51.42782
G1 X98.544 Y129.736 E51.68760
G1 X99.605 Y129.736 E51.81996
G1 X98.133 Y128.264 E52.07973
G1 X99.194 Y128.264 E52.21210
G1 X100.666 Y129.736 E52.47187
G1 X101.660 Y129.669 E52.59617
G1 X100.254 Y128.264 E52.84415
G1 X101.315 Y128.264 E52.97651
G1 X101.658 Y128.607 E53.03704
G1 X84.084 Y129.000 F7800.000
G1 X82.999 Y130.085 F7800.000
G1 X82.541 Y151.000 F7800.000
G1 X82.999 Y161.915 F7800.000
G1 X83.102 Y163.982 F7800.000
G1 X83.999 Y164.250 F7800.000
G1 X102.172 Y164.250 F7800.000
G1 X102.451 Y164.250 F7800.000
G1 X83.528 Y164.250 E57.80186 F1800.000
G1 X83.044 Y164.040 E57.93472
G1 X83.041 Y161.471 E58.58153
G1 E56.58153 F2400.00000
G92 E0
G1 X119.947 Y125.586 F7800.000
G1 X119.947 Y125.586 F7800.000
G1 X122.012 Y125.586 F7800.000
G1 X124.078 Y125.586 F7800.000
G1 X126.906 Y130.172 F7800.000
G1 E2.00000 F2400.00000
G1 X126.906 Y127.828 E2.27831 F1800.000
G1 X146.087 Y127.828 E4.55634
G1 X146.090 Y130.172 E4.83465
G1 X126.966 Y130.172 E7.10593
G1 X126.879 Y130.886 F7800.000
G1 X126.879 Y161.114 E10.69600 F1800.000
G1 X127.879 Y161.114 E10.81477
G1 X127.879 Y163.614 E11.11168
G1 X146.803 Y163.614 E13.35916
G1 X146.801 Y164.886 E13.51019
G1 X126.192 Y164.886 E15.95777
G1 X126.192 Y127.114 E20.44373
G1 X146.800 Y127.114 E22.89128
G1 X146.805 Y130.886 E23.33922
G1 X126.939 Y130.886 E25.69860
G1 X127.593 Y131.600 F7800.000
G1 X127.593 Y135.400 E26.14991 F1800.000
G1 X128.593 Y135.400 E26.26868
G1 X128.593 Y136.600 E26.41120
G1 X127.593 Y136.600 E26.52997
G1 X127.593 Y140.400 E26.98128
G1 X128.593 Y140.400 E27.10005
G1 X128.593 Y141.600 E27.24257
G1 X127.593 Y141.600 E27.36134
G1 X127.593 Y145.400 E27.81265
G1 X128.593 Y145.400 E27.93142
G1 X128.593 Y146.600 E28.07394
G1 X127.593 Y146.600 E28.19271
G1 X127.593 Y150.400 E28.64402
G1 X128.593 Y150.400 E28.76279
G1 X128.593 Y151.600 E28.90531
G1 X127.593 Y151.600 E29.02408
G1 X127.593 Y155.400 E29.47539
G1 X128.593 Y155.400 E29.59416
G1 X128.593 Y156.600 E29.73668
G1 X127.593 Y156.600 E29.85545
G1 X127.593 Y160.400 E30.30676
G1 X128.593 Y160.400 E30.42553
G1 X128.593 Y162.900 E30.72245
G1 X147.518 Y162.900 E32.97006
G1 X147.513 Y165.600 E33.29073
G1 X125.478 Y165.600 E35.90781
G1 X125.478 Y126.400 E40.56340
G1 X147.513 Y126.400 E43.18046
G1 X147.519 Y131.600 E43.79804
G1 X127.653 Y131.600 E46.15747
G1 X127.193 Y131.600 F7800.000
G1 X127.342 Y129.393 F7800.000
G1 X127.685 Y129.736 E46.21798 F1800.000
G1 X128.746 Y129.736 E46.35035
G1 X127.342 Y128.332 E46.59806
G1 X128.334 Y128.264 E46.72218
G1 X129.807 Y129.736 E46.98195
G1 X130.867 Y129.736 E47.11432
G1 X129.395 Y128.264 E47.37409
G1 X130.456 Y128.264 E47.50645
G1 X131.928 Y129.736 E47.76623
G1 X132.989 Y129.736 E47.89859
G1 X131.517 Y128.264 E48.15836
G1 X132.578 Y128.264 E48.29073
G1 X134.050 Y129.736 E48.55050
G1 X135.111 Y129.736 E48.68287
G1 X133.639 Y128.264 E48.94264
G1 X134.700 Y128.264 E49.07500
G1 X136.172 Y129.736 E49.33478
G1 X137.233 Y129.736 E49.46714
