; generated by Slic3r 1.2.9 on 2017-08-11 at 11:53:38

; external perimeters extrusion width = 0.40mm
; perimeters extrusion width = 0.68mm
; infill extrusion width = 1.28mm
; solid infill extrusion width = 0.68mm
; top infill extrusion width = 0.68mm

M107
M190 S70 ; set bed temperature
M104 S200 ; set temperature
G28 ; home all axes
G1 Z5 F5000 ; lift nozzle

M109 S200 ; wait for temperature to be reached
G21 ; set units to millimeters
G90 ; use absolute coordinates
M82 ; use absolute distances for extrusion
G92 E0
G1 Z0.400 F7800.000
G1 E-2.00000 F2400.00000
G92 E0
G1 X74.068 Y74.068 F7800.000
G1 E2.00000 F2400.00000
G1 X75.178 Y72.958 E2.18647 F1800.000
G1 X75.701 Y72.488 E2.26992
G1 X78.141 Y70.512 E2.64286
G1 X78.710 Y70.099 E2.72633
G1 X81.343 Y68.388 E3.09928
G1 X81.952 Y68.037 E3.18275
G1 X84.750 Y66.611 E3.55570
G1 X85.392 Y66.325 E3.63917
G1 X88.323 Y65.200 E4.01211
G1 X88.992 Y64.983 E4.09558
G1 X92.025 Y64.170 E4.46852
G1 X92.712 Y64.024 E4.55195
G1 X95.814 Y63.533 E4.92490
G1 X96.513 Y63.459 E5.00839
G1 X99.649 Y63.295 E5.38134
G1 X100.665 Y63.311 E5.50204
G1 X103.487 Y63.459 E5.83769 F1800.000
G1 X104.186 Y63.533 E5.92118
G1 X107.288 Y64.024 E6.29412
G1 X107.975 Y64.170 E6.37756
G1 X111.008 Y64.983 E6.75050
G1 X111.677 Y65.200 E6.83397
G1 X114.608 Y66.325 E7.20691
G1 X115.250 Y66.611 E7.29038
G1 X118.048 Y68.037 E7.66333
G1 X118.657 Y68.388 E7.74680
G1 X121.290 Y70.099 E8.11975
G1 X121.859 Y70.512 E8.20322
G1 X124.299 Y72.488 E8.57616
G1 X124.822 Y72.958 E8.65961
G1 X127.042 Y75.178 E9.03255
G1 X127.512 Y75.701 E9.11600
G1 X129.488 Y78.141 E9.48894
G1 X129.901 Y78.710 E9.57241
G1 X131.612 Y81.343 E9.94536
G1 X131.963 Y81.952 E10.02883
G1 X133.389 Y84.750 E10.40178
G1 X133.675 Y85.392 E10.48525
G1 X134.800 Y88.323 E10.85819
G1 X135.017 Y88.992 E10.94166
G1 X135.830 Y92.025 E11.31460
G1 X135.976 Y92.712 E11.39804
G1 X136.467 Y95.814 E11.77098
G1 X136.541 Y96.513 E11.85447
G1 X136.705 Y99.649 E12.22742
G1 X136.705 Y100.351 E12.31086
G1 X136.541 Y103.487 E12.68380
G1 X136.467 Y104.186 E12.76729
G1 X135.976 Y107.288 E13.14024
G1 X135.830 Y107.975 E13.22368
G1 X135.017 Y111.008 E13.59662
G1 X134.800 Y111.677 E13.68008
G1 X133.675 Y114.608 E14.05302
G1 X133.389 Y115.250 E14.13650
G1 X131.963 Y118.048 E14.50944
G1 X131.612 Y118.657 E14.59291
G1 X129.901 Y121.290 E14.96586
G1 X129.488 Y121.859 E15.04934
G1 X127.512 Y124.299 E15.42228
G1 X127.042 Y124.822 E15.50573
G1 X124.822 Y127.042 E15.87866
G1 X124.299 Y127.512 E15.96211
G1 X121.859 Y129.488 E16.33505
G1 X121.290 Y129.901 E16.41853
G1 X118.657 Y131.612 E16.79148
G1 X118.048 Y131.963 E16.87495
G1 X115.250 Y133.389 E17.24789
G1 X114.608 Y133.675 E17.33137
G1 X111.677 Y134.800 E17.70431
G1 X111.008 Y135.017 E17.78777
G1 X107.975 Y135.830 E18.16071
G1 X107.288 Y135.976 E18.24415
G1 X104.186 Y136.467 E18.61710
G1 X103.487 Y136.541 E18.70059
G1 X100.351 Y136.705 E19.07353
G1 X99.649 Y136.705 E19.15698
G1 X96.513 Y136.541 E19.52992
G1 X95.814 Y136.467 E19.61341
G1 X92.712 Y135.976 E19.98635
G1 X92.025 Y135.830 E20.06979
G1 X88.992 Y135.017 E20.44273
G1 X88.323 Y134.800 E20.52620
G1 X85.392 Y133.675 E20.89914
G1 X84.750 Y133.389 E20.98262
G1 X81.952 Y131.963 E21.35556
G1 X81.343 Y131.612 E21.43903
G1 X78.710 Y129.901 E21.81198
G1 X78.141 Y129.488 E21.89545
G1 X75.701 Y127.512 E22.26839
G1 X75.178 Y127.042 E22.35184
G1 X72.958 Y124.822 E22.72478
G1 X72.488 Y124.299 E22.80823
G1 X70.512 Y121.859 E23.18117
G1 X70.099 Y121.290 E23.26465
G1 X68.388 Y118.657 E23.63759
G1 X68.037 Y118.048 E23.72106
G1 X66.611 Y115.250 E24.09401
G1 X66.325 Y114.608 E24.17748
G1 X65.200 Y111.677 E24.55042
G1 X64.983 Y111.008 E24.63389
G1 X64.170 Y107.975 E25.00683
G1 X64.024 Y107.288 E25.09027
G1 X63.533 Y104.186 E25.46321
G1 X63.459 Y103.487 E25.54671
G1 X63.295 Y100.351 E25.91965
G1 X63.295 Y99.649 E26.00309
G1 X63.459 Y96.513 E26.37603
G1 X63.533 Y95.814 E26.45952
G1 X64.024 Y92.712 E26.83247
G1 X64.170 Y92.025 E26.91591
G1 X64.983 Y88.992 E27.28885
G1 X65.200 Y88.323 E27.37232
G1 X66.213 Y85.685 E27.70796
G1 X66.611 Y84.750 E27.82869
G1 X68.037 Y81.952 E28.20164
G1 X68.388 Y81.343 E28.28511
G1 X70.099 Y78.710 E28.65806
G1 X70.512 Y78.141 E28.74153
G1 X72.488 Y75.701 E29.11447
G1 X72.958 Y75.178 E29.19792
G1 X74.026 Y74.111 E29.37726
G1 E27.37726 F2400.00000
G92 E0
G1 X113.842 Y113.842 F7800.000
G1 E2.00000 F2400.00000
G1 X113.116 Y114.567 E2.12185 F1800.000
G1 X111.522 Y115.859 E2.36552
G1 X109.801 Y116.976 E2.60921
G1 X107.973 Y117.908 E2.85290
G1 X106.057 Y118.643 E3.09657
G1 X104.076 Y119.174 E3.34026
G1 X102.049 Y119.495 E3.58395
G1 X100.000 Y119.602 E3.82762
G1 X97.951 Y119.495 E4.07130
G1 X95.924 Y119.174 E4.31499
G1 X93.943 Y118.643 E4.55868
G1 X92.027 Y117.908 E4.80235
G1 X90.199 Y116.976 E5.04604
G1 X88.478 Y115.859 E5.28973
G1 X86.884 Y114.567 E5.53340
G1 X85.433 Y113.116 E5.77710
G1 X84.141 Y111.522 E6.02077
G1 X83.024 Y109.801 E6.26445
G1 X82.092 Y107.973 E6.50814
G1 X81.357 Y106.057 E6.75182
G1 X80.826 Y104.076 E6.99551
G1 X80.505 Y102.049 E7.23919
G1 X80.398 Y100.000 E7.48287
G1 X80.505 Y97.951 E7.72655
G1 X80.826 Y95.924 E7.97024
G1 X81.357 Y93.943 E8.21392
G1 X82.092 Y92.027 E8.45760
G1 X83.024 Y90.199 E8.70129
G1 X84.141 Y88.478 E8.94498
G1 X85.433 Y86.884 E9.18865
G1 X86.884 Y85.433 E9.43234
G1 X88.478 Y84.141 E9.67602
G1 X90.199 Y83.024 E9.91970
G1 X92.027 Y82.092 E10.16339
G1 X93.943 Y81.357 E10.40707
G1 X95.924 Y80.826 E10.65076
G1 X97.951 Y80.505 E10.89443
G1 X98.238 Y80.490 E10.92855
G1 X100.000 Y80.398 E11.13812 F1800.000
G1 X102.049 Y80.505 E11.38180
G1 X104.076 Y80.826 E11.62549
G1 X106.057 Y81.357 E11.86917
G1 X107.973 Y82.092 E12.11285
G1 X109.801 Y83.024 E12.35654
G1 X111.522 Y84.141 E12.60022
G1 X113.116 Y85.433 E12.84390
G1 X114.567 Y86.884 E13.08759
G1 X115.859 Y88.478 E13.33127
G1 X116.976 Y90.199 E13.57495
G1 X117.908 Y92.027 E13.81864
G1 X118.643 Y93.943 E14.06232
G1 X119.174 Y95.924 E14.30600
G1 X119.495 Y97.951 E14.54969
G1 X119.602 Y100.000 E14.79337
G1 X119.495 Y102.049 E15.03705
G1 X119.174 Y104.076 E15.28074
G1 X118.643 Y106.057 E15.52442
G1 X117.908 Y107.973 E15.76810
G1 X116.976 Y109.801 E16.01179
G1 X115.859 Y111.522 E16.25547
G1 X114.567 Y113.116 E16.49915
G1 X113.884 Y113.799 E16.61387
G1 X113.337 Y113.337 F7800.000
G1 X112.638 Y114.036 E16.73127 F1800.000
G1 X111.102 Y115.280 E16.96605
G1 X109.444 Y116.357 E17.20085
G1 X107.682 Y117.254 E17.43565
G1 X105.836 Y117.963 E17.67044
G1 X103.927 Y118.474 E17.90523
G1 X101.974 Y118.784 E18.14003
G1 X100.000 Y118.887 E18.37482
G1 X98.026 Y118.784 E18.60961
G1 X96.073 Y118.474 E18.84440
G1 X94.164 Y117.963 E19.07920
G1 X92.318 Y117.254 E19.31399
G1 X90.556 Y116.357 E19.54878
G1 X88.898 Y115.280 E19.78358
G1 X87.362 Y114.036 E20.01837
G1 X85.964 Y112.638 E20.25316
G1 X84.720 Y111.102 E20.48795
G1 X83.643 Y109.444 E20.72275
G1 X82.746 Y107.682 E20.95754
G1 X82.037 Y105.836 E21.19233
G1 X81.526 Y103.927 E21.42713
G1 X81.216 Y101.974 E21.66192
G1 X81.113 Y100.000 E21.89671
G1 X81.216 Y98.026 E22.13150
G1 X81.526 Y96.073 E22.36630
G1 X82.037 Y94.164 E22.60109
G1 X82.746 Y92.318 E22.83588
G1 X83.643 Y90.556 E23.07068
G1 X84.720 Y88.898 E23.30547
G1 X85.964 Y87.362 E23.54026
G1 X87.362 Y85.964 E23.77506
G1 X88.898 Y84.720 E24.00985
G1 X90.556 Y83.643 E24.24464
G1 X92.318 Y82.746 E24.47944
G1 X94.164 Y82.037 E24.71423
G1 X96.073 Y81.526 E24.94902
G1 X98.026 Y81.216 E25.18381
G1 X98.275 Y81.203 E25.21348
G1 X100.000 Y81.113 E25.41861 F1800.000
G1 X101.974 Y81.216 E25.65340
G1 X103.927 Y81.526 E25.88819
G1 X105.836 Y82.037 E26.12299
G1 X107.682 Y82.746 E26.35778
G1 X109.444 Y83.643 E26.59257
G1 X111.102 Y84.720 E26.82737
G1 X112.638 Y85.964 E27.06216
G1 X114.036 Y87.362 E27.29696
G1 X115.280 Y88.898 E27.53174
G1 X116.357 Y90.556 E27.76654
G1 X117.254 Y92.318 E28.00134
G1 X117.963 Y94.164 E28.23612
G1 X118.474 Y96.073 E28.47092
G1 X118.784 Y98.026 E28.70572
G1 X118.887 Y100.000 E28.94051
G1 X118.784 Y101.974 E29.17530
G1 X118.474 Y103.927 E29.41009
G1 X117.963 Y105.836 E29.64489
G1 X117.254 Y107.682 E29.87967
G1 X116.357 Y109.444 E30.11447
G1 X115.280 Y111.102 E30.34927
G1 X114.036 Y112.638 E30.58405
G1 X113.379 Y113.295 E30.69433
G1 X112.832 Y112.832 F7800.000
G1 X112.159 Y113.504 E30.80728 F1800.000
G1 X110.681 Y114.701 E31.03318
G1 X109.086 Y115.737 E31.25909
G1 X107.391 Y116.601 E31.48499
G1 X105.615 Y117.283 E31.71089
G1 X103.778 Y117.775 E31.93680
G1 X101.899 Y118.072 E32.16270
G1 X100.000 Y118.172 E32.38860
G1 X98.101 Y118.072 E32.61450
G1 X96.222 Y117.775 E32.84040
G1 X94.385 Y117.283 E33.06631
G1 X92.609 Y116.601 E33.29221
G1 X90.914 Y115.737 E33.51811
G1 X89.319 Y114.701 E33.74402
G1 X87.841 Y113.504 E33.96992
G1 X86.496 Y112.159 E34.19582
G1 X85.299 Y110.681 E34.42172
G1 X84.263 Y109.086 E34.64763
G1 X83.399 Y107.391 E34.87353
G1 X82.717 Y105.615 E35.09943
G1 X82.225 Y103.778 E35.32534
G1 X81.928 Y101.899 E35.55124
G1 X81.828 Y100.000 E35.77714
G1 X81.928 Y98.101 E36.00304
G1 X82.225 Y96.222 E36.22895
G1 X82.717 Y94.385 E36.45485
G1 X83.399 Y92.609 E36.68075
G1 X84.263 Y90.914 E36.90666
G1 X85.299 Y89.319 E37.13256
G1 X86.496 Y87.841 E37.35846
G1 X87.841 Y86.496 E37.58437
G1 X89.319 Y85.299 E37.81026
G1 X90.914 Y84.263 E38.03617
G1 X92.609 Y83.399 E38.26208
G1 X94.385 Y82.717 E38.48798
G1 X96.222 Y82.225 E38.71388
G1 X98.101 Y81.928 E38.93978
G1 X98.313 Y81.916 E38.96500
G1 X100.000 Y81.828 E39.16569 F1800.000
G1 X101.899 Y81.928 E39.39159
G1 X103.778 Y82.225 E39.61749
G1 X105.615 Y82.717 E39.84340
G1 X107.391 Y83.399 E40.06930
G1 X109.086 Y84.263 E40.29520
G1 X110.681 Y85.299 E40.52111
G1 X112.159 Y86.496 E40.74701
G1 X113.504 Y87.841 E40.97291
G1 X114.701 Y89.319 E41.19881
G1 X115.737 Y90.914 E41.42472
G1 X116.601 Y92.609 E41.65062
G1 X117.283 Y94.385 E41.87652
G1 X117.775 Y96.222 E42.10243
G1 X118.072 Y98.101 E42.32833
G1 X118.172 Y100.000 E42.55423
G1 X118.072 Y101.899 E42.78013
G1 X117.775 Y103.778 E43.00603
G1 X117.283 Y105.615 E43.23194
G1 X116.601 Y107.391 E43.45784
G1 X115.737 Y109.086 E43.68374
G1 X114.701 Y110.681 E43.90965
G1 X113.504 Y112.159 E44.13555
G1 X112.874 Y112.790 E44.24138
G1 X112.935 Y113.218 F7800.000
G1 X119.891 Y119.891 F7800.000
G1 X118.849 Y120.934 E44.41647 F1800.000
G1 X116.557 Y122.789 E44.76665
G1 X114.085 Y124.395 E45.11683
G1 X111.457 Y125.734 E45.46701
G1 X108.705 Y126.790 E45.81719
G1 X105.857 Y127.554 E46.16738
G1 X102.944 Y128.015 E46.51756
G1 X100.000 Y128.169 E46.86774
G1 X97.056 Y128.015 E47.21792
G1 X94.143 Y127.554 E47.56810
G1 X91.295 Y126.790 E47.91829
G1 X88.543 Y125.734 E48.26847
G1 X85.915 Y124.395 E48.61865
G1 X83.443 Y122.789 E48.96883
G1 X81.151 Y120.934 E49.31901
G1 X79.066 Y118.849 E49.66919
G1 X77.211 Y116.557 E50.01937
G1 X75.605 Y114.085 E50.36956
G1 X74.266 Y111.457 E50.71974
G1 X73.210 Y108.705 E51.06992
G1 X72.446 Y105.857 E51.42010
G1 X71.985 Y102.944 E51.77029
G1 X71.831 Y100.000 E52.12046
G1 X71.985 Y97.056 E52.47064
G1 X72.446 Y94.143 E52.82083
G1 X73.210 Y91.295 E53.17101
G1 X74.266 Y88.543 E53.52119
G1 X75.605 Y85.915 E53.87137
G1 X77.211 Y83.443 E54.22156
G1 X79.066 Y81.151 E54.57174
G1 X81.151 Y79.066 E54.92192
G1 X83.443 Y77.211 E55.27210
G1 X85.915 Y75.605 E55.62228
G1 X88.543 Y74.266 E55.97246
G1 X91.295 Y73.210 E56.32264
G1 X94.143 Y72.446 E56.67283
G1 X97.056 Y71.985 E57.02301
G1 X100.000 Y71.831 E57.37319
G1 X100.218 Y71.842 E57.39911
G1 X102.944 Y71.985 E57.72337 F1800.000
G1 X105.857 Y72.446 E58.07355
G1 X108.705 Y73.210 E58.42374
G1 X111.457 Y74.266 E58.77392
G1 X114.085 Y75.605 E59.12410
G1 X116.557 Y77.211 E59.47428
G1 X118.849 Y79.066 E59.82446
G1 X120.934 Y81.151 E60.17464
G1 X122.789 Y83.443 E60.52482
G1 X124.395 Y85.915 E60.87501
G1 X125.734 Y88.543 E61.22519
G1 X126.790 Y91.295 E61.57537
G1 X127.554 Y94.143 E61.92555
G1 X128.015 Y97.056 E62.27574
G1 X128.169 Y100.000 E62.62592
G1 X128.015 Y102.944 E62.97610
G1 X127.554 Y105.857 E63.32628
G1 X126.790 Y108.705 E63.67646
G1 X125.734 Y111.457 E64.02664
G1 X124.395 Y114.085 E64.37682
G1 X122.789 Y116.557 E64.72701
G1 X120.934 Y118.849 E65.07719
G1 X119.934 Y119.849 E65.24515
G1 X120.396 Y120.396 F7800.000
G1 X119.327 Y121.465 E65.42469 F1800.000
G1 X116.978 Y123.368 E65.78376
G1 X114.442 Y125.015 E66.14284
G1 X111.748 Y126.387 E66.50191
G1 X108.926 Y127.471 E66.86098
G1 X106.005 Y128.253 E67.22005
G1 X103.019 Y128.726 E67.57912
G1 X100.000 Y128.884 E67.93819
G1 X96.981 Y128.726 E68.29726
G1 X93.995 Y128.253 E68.65634
G1 X91.074 Y127.471 E69.01541
G1 X88.252 Y126.387 E69.37448
G1 X85.558 Y125.015 E69.73355
G1 X83.022 Y123.368 E70.09263
G1 X80.673 Y121.465 E70.45170
G1 X78.535 Y119.327 E70.81077
G1 X76.632 Y116.978 E71.16984
G1 X74.985 Y114.442 E71.52891
G1 X73.613 Y111.748 E71.88798
G1 X72.529 Y108.926 E72.24705
G1 X71.747 Y106.005 E72.60613
G1 X71.274 Y103.019 E72.96520
G1 X71.116 Y100.000 E73.32427
G1 X71.274 Y96.981 E73.68334
G1 X71.747 Y93.995 E74.04241
G1 X72.529 Y91.074 E74.40149
G1 X73.613 Y88.252 E74.76056
G1 X74.985 Y85.558 E75.11963
G1 X76.632 Y83.022 E75.47871
G1 X78.535 Y80.673 E75.83778
G1 X80.673 Y78.535 E76.19685
G1 X83.022 Y76.632 E76.55591
G1 X85.558 Y74.985 E76.91499
G1 X88.252 Y73.613 E77.27406
G1 X91.074 Y72.529 E77.63313
G1 X93.995 Y71.747 E77.99221
G1 X96.981 Y71.274 E78.35128
G1 X100.000 Y71.116 E78.71035
G1 X100.255 Y71.129 E78.74071
G1 X103.019 Y71.274 E79.06942 F1800.000
G1 X106.005 Y71.747 E79.42849
G1 X108.926 Y72.529 E79.78757
G1 X111.748 Y73.613 E80.14664
G1 X114.442 Y74.985 E80.50571
G1 X116.978 Y76.632 E80.86478
G1 X119.327 Y78.535 E81.22385
G1 X121.465 Y80.673 E81.58292
G1 X123.368 Y83.022 E81.94199
G1 X125.015 Y85.558 E82.30107
G1 X126.387 Y88.252 E82.66014
G1 X127.471 Y91.074 E83.01921
G1 X128.253 Y93.995 E83.37828
G1 X128.726 Y96.981 E83.73736
G1 X128.884 Y100.000 E84.09643
G1 X128.726 Y103.019 E84.45550
G1 X128.253 Y106.005 E84.81457
G1 X127.471 Y108.926 E85.17364
G1 X126.387 Y111.748 E85.53271
G1 X125.015 Y114.442 E85.89178
G1 X123.368 Y116.978 E86.25086
G1 X121.465 Y119.327 E86.60993
G1 X120.439 Y120.354 E86.78234
G1 X120.901 Y120.901 F7800.000
G1 X119.806 Y121.997 E86.96632 F1800.000
G1 X117.398 Y123.946 E87.33428
G1 X114.800 Y125.634 E87.70225
G1 X112.039 Y127.040 E88.07021
G1 X109.147 Y128.151 E88.43817
G1 X106.154 Y128.953 E88.80613
G1 X103.094 Y129.437 E89.17410
G1 X100.000 Y129.599 E89.54206
G1 X96.906 Y129.437 E89.91002
G1 X93.846 Y128.953 E90.27798
G1 X90.853 Y128.151 E90.64594
G1 X87.961 Y127.040 E91.01390
G1 X85.200 Y125.634 E91.38186
G1 X82.602 Y123.946 E91.74983
G1 X80.194 Y121.997 E92.11779
G1 X78.003 Y119.806 E92.48575
G1 X76.054 Y117.398 E92.85371
G1 X74.366 Y114.800 E93.22168
G1 X72.960 Y112.039 E93.58964
G1 X71.849 Y109.147 E93.95760
G1 X71.047 Y106.154 E94.32556
G1 X70.563 Y103.094 E94.69353
G1 X70.401 Y100.000 E95.06149
G1 X70.563 Y96.906 E95.42945
G1 X71.047 Y93.846 E95.79741
G1 X71.849 Y90.853 E96.16537
G1 X72.960 Y87.961 E96.53333
G1 X74.366 Y85.200 E96.90130
G1 X76.054 Y82.602 E97.26926
G1 X78.003 Y80.194 E97.63722
G1 X80.194 Y78.003 E98.00518
G1 X82.602 Y76.054 E98.37314
G1 X85.200 Y74.366 E98.74111
G1 X87.961 Y72.960 E99.10907
G1 X90.853 Y71.849 E99.47703
G1 X93.846 Y71.047 E99.84499
G1 X96.906 Y70.563 E100.21296
G1 X100.000 Y70.401 E100.58092
G1 X100.293 Y70.416 E100.61572
G1 X103.094 Y70.563 E100.94888 F1800.000
G1 X106.154 Y71.047 E101.31684
G1 X109.147 Y71.849 E101.68480
G1 X112.039 Y72.960 E102.05276
G1 X114.800 Y74.366 E102.42073
G1 X117.398 Y76.054 E102.78870
G1 X119.806 Y78.003 E103.15665
G1 X121.997 Y80.194 E103.52461
G1 X123.946 Y82.602 E103.89257
G1 X125.634 Y85.200 E104.26054
G1 X127.040 Y87.961 E104.62850
G1 X128.151 Y90.853 E104.99646
G1 X128.953 Y93.846 E105.36442
G1 X129.437 Y96.906 E105.73239
G1 X129.599 Y100.000 E106.10035
G1 X129.437 Y103.094 E106.46831
G1 X128.953 Y106.154 E106.83627
G1 X128.151 Y109.147 E107.20424
G1 X127.040 Y112.039 E107.57220
G1 X125.634 Y114.800 E107.94016
G1 X123.946 Y117.398 E108.30813
G1 X121.997 Y119.806 E108.67608
G1 X120.944 Y120.859 E108.85294
G1 X120.515 Y120.798 F7800.000
G1 X118.839 Y93.058 F7800.000
G1 X127.643 Y101.862 E110.33328 F1800.000
G1 X127.593 Y102.823 E110.44765
G1 X119.296 Y94.526 E111.84261
G1 X119.633 Y95.874 E112.00777
