; generated by Slic3r 1.2.9 on 2017-08-13 at 18:47:23

; external perimeters extrusion width = 0.40mm
; perimeters extrusion width = 0.68mm
; infill extrusion width = 1.28mm
; solid infill extrusion width = 0.68mm
; top infill extrusion width = 0.68mm

M107
M190 S70 ; set bed temperature
M104 S200 ; set temperature
G28 ; home all axes
G1 Z5 F5000 ; lift nozzle

M109 S200 ; wait for temperature to be reached
G21 ; set units to millimeters
G90 ; use absolute coordinates
M82 ; use absolute distances for extrusion
G92 E0
G1 Z0.400 F7800.000
G1 E-2.00000 F2400.00000
G92 E0
G1 X79.364 Y79.364 F7800.000
G1 E2.00000 F2400.00000
G1 X80.197 Y78.532 E2.13985 F1800.000
G1 X80.719 Y78.061 E2.22331
G1 X82.549 Y76.579 E2.50301
G1 X83.118 Y76.166 E2.58648
G1 X85.093 Y74.883 E2.86619
G1 X85.702 Y74.532 E2.94966
G1 X87.800 Y73.463 E3.22936
G1 X88.442 Y73.177 E3.31283
G1 X90.641 Y72.333 E3.59254
G1 X91.310 Y72.116 E3.67602
G1 X93.584 Y71.506 E3.95572
G1 X94.272 Y71.360 E4.03918
G1 X96.598 Y70.992 E4.31889
G1 X97.297 Y70.918 E4.40233
G1 X99.648 Y70.795 E4.68204
G1 X100.352 Y70.795 E4.76553
G1 X102.703 Y70.918 E5.04524
G1 X103.402 Y70.992 E5.12868 F1800.000
G1 X105.728 Y71.360 E5.40839
G1 X106.416 Y71.506 E5.49184
G1 X108.691 Y72.116 E5.77155
G1 X109.359 Y72.333 E5.85503
G1 X111.558 Y73.177 E6.13474
G1 X112.200 Y73.463 E6.21820
G1 X114.298 Y74.532 E6.49791
G1 X114.907 Y74.883 E6.58137
G1 X116.882 Y76.166 E6.86108
G1 X117.451 Y76.579 E6.94456
G1 X119.281 Y78.061 E7.22426
G1 X119.803 Y78.532 E7.30772
G1 X121.468 Y80.197 E7.58744
G1 X121.939 Y80.719 E7.67089
G1 X123.421 Y82.549 E7.95059
G1 X123.834 Y83.118 E8.03407
G1 X125.117 Y85.093 E8.31378
G1 X125.468 Y85.702 E8.39724
G1 X126.537 Y87.800 E8.67695
G1 X126.823 Y88.442 E8.76041
G1 X127.667 Y90.641 E9.04012
G1 X127.884 Y91.309 E9.12360
G1 X128.494 Y93.584 E9.40331
G1 X128.640 Y94.272 E9.48676
G1 X129.008 Y96.598 E9.76647
G1 X129.082 Y97.297 E9.84992
G1 X129.205 Y99.648 E10.12962
G1 X129.205 Y100.352 E10.21312
G1 X129.082 Y102.703 E10.49282
G1 X129.008 Y103.402 E10.57627
G1 X128.640 Y105.728 E10.85597
G1 X128.494 Y106.416 E10.93943
G1 X127.884 Y108.691 E11.21913
G1 X127.667 Y109.359 E11.30262
G1 X126.823 Y111.558 E11.58232
G1 X126.537 Y112.200 E11.66579
G1 X125.468 Y114.298 E11.94549
G1 X125.117 Y114.907 E12.02896
G1 X123.834 Y116.882 E12.30867
G1 X123.421 Y117.451 E12.39215
G1 X121.939 Y119.281 E12.67184
G1 X121.468 Y119.803 E12.75530
G1 X119.803 Y121.468 E13.03502
G1 X119.281 Y121.939 E13.11848
G1 X117.451 Y123.421 E13.39818
G1 X116.882 Y123.834 E13.48165
G1 X114.907 Y125.117 E13.76136
G1 X114.298 Y125.468 E13.84483
G1 X112.200 Y126.537 E14.12453
G1 X111.558 Y126.823 E14.20800
G1 X109.359 Y127.667 E14.48771
G1 X108.691 Y127.884 E14.57119
G1 X106.416 Y128.494 E14.85089
G1 X105.728 Y128.640 E14.93435
G1 X103.402 Y129.008 E15.21406
G1 X102.703 Y129.082 E15.29750
G1 X100.352 Y129.205 E15.57721
G1 X99.648 Y129.205 E15.66070
G1 X97.297 Y129.082 E15.94041
G1 X96.598 Y129.008 E16.02385
G1 X94.272 Y128.640 E16.30356
G1 X93.584 Y128.494 E16.38701
G1 X91.309 Y127.884 E16.66672
G1 X90.641 Y127.667 E16.75020
G1 X88.442 Y126.823 E17.02991
G1 X87.800 Y126.537 E17.11337
G1 X85.702 Y125.468 E17.39308
G1 X85.093 Y125.117 E17.47654
G1 X83.118 Y123.834 E17.75625
G1 X82.549 Y123.421 E17.83973
G1 X80.719 Y121.939 E18.11943
G1 X80.197 Y121.468 E18.20289
G1 X78.532 Y119.803 E18.48261
G1 X78.061 Y119.281 E18.56606
G1 X76.579 Y117.451 E18.84576
G1 X76.166 Y116.882 E18.92924
G1 X74.883 Y114.907 E19.20895
G1 X74.532 Y114.298 E19.29241
G1 X73.463 Y112.200 E19.57212
G1 X73.177 Y111.558 E19.65558
G1 X72.333 Y109.359 E19.93529
G1 X72.116 Y108.691 E20.01877
G1 X71.506 Y106.416 E20.29848
G1 X71.360 Y105.728 E20.38194
G1 X70.992 Y103.402 E20.66164
G1 X70.918 Y102.703 E20.74509
G1 X70.795 Y100.352 E21.02479
G1 X70.795 Y99.648 E21.10829
G1 X70.918 Y97.297 E21.38799
G1 X70.992 Y96.598 E21.47144
G1 X71.360 Y94.272 E21.75115
G1 X71.506 Y93.584 E21.83460
G1 X72.116 Y91.310 E22.11430
G1 X72.333 Y90.641 E22.19779
G1 X73.177 Y88.442 E22.47749
G1 X73.463 Y87.800 E22.56096
G1 X74.532 Y85.702 E22.84066
G1 X74.883 Y85.093 E22.92413
G1 X76.166 Y83.118 E23.20384
G1 X76.579 Y82.549 E23.28732
G1 X78.061 Y80.719 E23.56702
G1 X78.532 Y80.197 E23.65047
G1 X79.322 Y79.407 E23.78321
G1 E21.78321 F2400.00000
G92 E0
G1 X107.648 Y107.648 F7800.000
G1 E2.00000 F2400.00000
G1 X107.253 Y108.043 E2.06639 F1800.000
G1 X106.367 Y108.762 E2.20188
G1 X105.415 Y109.380 E2.33661
G1 X104.405 Y109.894 E2.47126
G1 X103.347 Y110.301 E2.60590
G1 X102.252 Y110.594 E2.74054
G1 X101.132 Y110.771 E2.87518
G1 X100.000 Y110.831 E3.00982
G1 X98.868 Y110.771 E3.14447
G1 X97.748 Y110.594 E3.27911
G1 X96.653 Y110.301 E3.41375
G1 X95.595 Y109.894 E3.54839
G1 X94.585 Y109.380 E3.68303
G1 X93.634 Y108.762 E3.81768
G1 X92.753 Y108.049 E3.95232
G1 X91.955 Y107.251 E4.08637
G1 X91.238 Y106.367 E4.22155
G1 X90.620 Y105.415 E4.35624
G1 X90.106 Y104.405 E4.49089
G1 X89.699 Y103.347 E4.62553
G1 X89.406 Y102.252 E4.76017
G1 X89.228 Y101.132 E4.89481
G1 X89.169 Y100.000 E5.02945
G1 X89.229 Y98.868 E5.16410
G1 X89.406 Y97.748 E5.29874
G1 X89.699 Y96.653 E5.43338
G1 X90.104 Y95.598 E5.56761
G1 X90.620 Y94.585 E5.70262
G1 X91.238 Y93.634 E5.83731
G1 X91.951 Y92.753 E5.97195
G1 X92.753 Y91.951 E6.10659
G1 X93.634 Y91.238 E6.24123
G1 X94.585 Y90.620 E6.37587
G1 X95.595 Y90.106 E6.51052
G1 X96.653 Y89.699 E6.64516
G1 X97.748 Y89.406 E6.77980
G1 X98.868 Y89.229 E6.91444
G1 X99.993 Y89.170 E7.04831 F1800.000
G1 X101.132 Y89.228 E7.18365
G1 X102.252 Y89.406 E7.31836
G1 X103.347 Y89.699 E7.45301
G1 X104.405 Y90.106 E7.58765
G1 X105.415 Y90.620 E7.72229
G1 X106.366 Y91.238 E7.85693
G1 X107.247 Y91.951 E7.99157
G1 X108.049 Y92.753 E8.12622
G1 X108.762 Y93.634 E8.26086
G1 X109.380 Y94.585 E8.39550
G1 X109.894 Y95.595 E8.53014
G1 X110.301 Y96.653 E8.66479
G1 X110.594 Y97.748 E8.79943
G1 X110.771 Y98.868 E8.93407
G1 X110.831 Y100.000 E9.06871
G1 X110.771 Y101.132 E9.20335
G1 X110.594 Y102.252 E9.33800
G1 X110.301 Y103.347 E9.47263
G1 X109.894 Y104.405 E9.60728
G1 X109.380 Y105.415 E9.74192
G1 X108.762 Y106.366 E9.87657
G1 X108.049 Y107.247 E10.01121
G1 X107.691 Y107.606 E10.07139
G1 X107.143 Y107.143 F7800.000
G1 X106.774 Y107.512 E10.13337 F1800.000
G1 X105.946 Y108.184 E10.25997
G1 X105.058 Y108.760 E10.38578
G1 X104.114 Y109.241 E10.51153
G1 X103.126 Y109.621 E10.63728
G1 X102.103 Y109.895 E10.76303
G1 X101.057 Y110.060 E10.88878
G1 X100.000 Y110.116 E11.01454
G1 X98.943 Y110.060 E11.14029
G1 X97.897 Y109.895 E11.26604
G1 X96.874 Y109.621 E11.39179
G1 X95.886 Y109.241 E11.51754
G1 X94.942 Y108.760 E11.64329
G1 X94.054 Y108.184 E11.76905
G1 X93.231 Y107.517 E11.89480
G1 X92.486 Y106.772 E12.01998
G1 X91.816 Y105.946 E12.14627
G1 X91.240 Y105.058 E12.27205
G1 X90.759 Y104.114 E12.39780
G1 X90.379 Y103.126 E12.52356
G1 X90.105 Y102.103 E12.64931
G1 X89.940 Y101.057 E12.77506
G1 X89.884 Y100.000 E12.90081
G1 X89.940 Y98.943 E13.02656
G1 X90.105 Y97.897 E13.15232
G1 X90.379 Y96.874 E13.27807
G1 X90.758 Y95.889 E13.40342
G1 X91.239 Y94.942 E13.52955
G1 X91.816 Y94.054 E13.65532
G1 X92.483 Y93.231 E13.78107
G1 X93.231 Y92.483 E13.90682
G1 X94.054 Y91.816 E14.03258
G1 X94.942 Y91.240 E14.15833
G1 X95.886 Y90.759 E14.28408
G1 X96.874 Y90.379 E14.40983
G1 X97.897 Y90.105 E14.53559
G1 X98.943 Y89.940 E14.66134
G1 X99.994 Y89.885 E14.78634 F1800.000
G1 X101.057 Y89.940 E14.91279
G1 X102.103 Y90.105 E15.03859
G1 X103.126 Y90.379 E15.16434
G1 X104.114 Y90.759 E15.29009
G1 X105.058 Y91.240 E15.41584
G1 X105.946 Y91.816 E15.54160
G1 X106.769 Y92.483 E15.66735
G1 X107.517 Y93.231 E15.79310
G1 X108.184 Y94.054 E15.91885
G1 X108.760 Y94.942 E16.04460
G1 X109.241 Y95.886 E16.17036
G1 X109.621 Y96.874 E16.29611
G1 X109.895 Y97.897 E16.42186
G1 X110.060 Y98.943 E16.54761
G1 X110.116 Y100.000 E16.67336
G1 X110.060 Y101.057 E16.79912
G1 X109.895 Y102.103 E16.92487
G1 X109.621 Y103.126 E17.05062
G1 X109.241 Y104.114 E17.17637
G1 X108.760 Y105.058 E17.30212
G1 X108.184 Y105.946 E17.42788
G1 X107.517 Y106.769 E17.55363
G1 X107.186 Y107.101 E17.60936
G1 X106.638 Y106.638 F7800.000
G1 X106.295 Y106.981 E17.66693 F1800.000
G1 X105.526 Y107.605 E17.78465
G1 X104.700 Y108.141 E17.90153
G1 X103.824 Y108.588 E18.01839
G1 X102.905 Y108.940 E18.13525
G1 X101.954 Y109.195 E18.25212
G1 X100.983 Y109.349 E18.36897
G1 X100.000 Y109.401 E18.48584
G1 X99.017 Y109.349 E18.60270
G1 X98.046 Y109.195 E18.71956
G1 X97.095 Y108.940 E18.83642
G1 X96.176 Y108.588 E18.95328
G1 X95.300 Y108.141 E19.07014
G1 X94.474 Y107.605 E19.18701
G1 X93.710 Y106.986 E19.30387
G1 X93.017 Y106.293 E19.42018
G1 X92.395 Y105.526 E19.53758
G1 X91.859 Y104.700 E19.65445
G1 X91.412 Y103.824 E19.77131
G1 X91.060 Y102.905 E19.88818
G1 X90.805 Y101.954 E20.00504
G1 X90.651 Y100.983 E20.12190
G1 X90.599 Y100.000 E20.23876
G1 X90.651 Y99.017 E20.35562
G1 X90.805 Y98.046 E20.47248
G1 X91.060 Y97.095 E20.58934
G1 X91.411 Y96.179 E20.70583
G1 X91.859 Y95.300 E20.82306
G1 X92.395 Y94.474 E20.93993
G1 X93.014 Y93.710 E21.05679
G1 X93.710 Y93.014 E21.17365
G1 X94.474 Y92.395 E21.29051
G1 X95.300 Y91.859 E21.40738
G1 X96.176 Y91.412 E21.52424
G1 X97.095 Y91.060 E21.64110
G1 X98.046 Y90.805 E21.75796
G1 X99.017 Y90.651 E21.87482
G1 X99.994 Y90.600 E21.99096 F1800.000
G1 X100.982 Y90.651 E22.10853
G1 X101.954 Y90.805 E22.22540
G1 X102.905 Y91.060 E22.34227
G1 X103.824 Y91.412 E22.45913
G1 X104.700 Y91.859 E22.57599
G1 X105.526 Y92.395 E22.69285
G1 X106.290 Y93.014 E22.80971
G1 X106.986 Y93.710 E22.92658
G1 X107.605 Y94.474 E23.04344
G1 X108.141 Y95.300 E23.16030
G1 X108.588 Y96.176 E23.27716
G1 X108.940 Y97.095 E23.39403
G1 X109.195 Y98.046 E23.51088
G1 X109.349 Y99.017 E23.62775
G1 X109.401 Y100.000 E23.74461
G1 X109.349 Y100.983 E23.86147
G1 X109.195 Y101.954 E23.97833
G1 X108.940 Y102.905 E24.09519
G1 X108.588 Y103.824 E24.21205
G1 X108.141 Y104.700 E24.32892
G1 X107.605 Y105.526 E24.44578
G1 X106.986 Y106.290 E24.56264
G1 X106.681 Y106.596 E24.61393
G1 X106.742 Y107.024 F7800.000
G1 X114.595 Y114.595 F7800.000
G1 X113.830 Y115.360 E24.74243 F1800.000
G1 X112.149 Y116.722 E24.99936
G1 X110.335 Y117.900 E25.25631
G1 X108.407 Y118.882 E25.51326
G1 X106.387 Y119.658 E25.77020
G1 X104.297 Y120.217 E26.02715
G1 X102.161 Y120.556 E26.28410
G1 X100.000 Y120.669 E26.54104
G1 X97.839 Y120.556 E26.79799
G1 X95.703 Y120.217 E27.05494
G1 X93.613 Y119.658 E27.31188
G1 X91.593 Y118.882 E27.56883
G1 X89.665 Y117.900 E27.82577
G1 X87.851 Y116.722 E28.08272
G1 X86.170 Y115.360 E28.33966
G1 X84.640 Y113.830 E28.59662
G1 X83.278 Y112.149 E28.85356
G1 X82.100 Y110.335 E29.11051
G1 X81.118 Y108.407 E29.36746
G1 X80.342 Y106.387 E29.62440
G1 X79.783 Y104.297 E29.88134
G1 X79.444 Y102.161 E30.13829
G1 X79.331 Y100.000 E30.39524
G1 X79.444 Y97.839 E30.65218
G1 X79.783 Y95.703 E30.90913
G1 X80.342 Y93.613 E31.16608
G1 X81.118 Y91.593 E31.42302
G1 X82.100 Y89.665 E31.67997
G1 X83.278 Y87.851 E31.93692
G1 X84.640 Y86.170 E32.19385
G1 X86.170 Y84.640 E32.45082
G1 X87.851 Y83.278 E32.70775
G1 X89.665 Y82.100 E32.96470
G1 X91.593 Y81.118 E33.22165
G1 X93.613 Y80.342 E33.47859
G1 X95.703 Y79.783 E33.73554
G1 X97.839 Y79.444 E33.99249
G1 X100.000 Y79.331 E34.24943
G1 X102.161 Y79.444 E34.50638
G1 X104.297 Y79.783 E34.76333 F1800.000
G1 X106.387 Y80.342 E35.02027
G1 X108.407 Y81.118 E35.27722
G1 X110.335 Y82.100 E35.53416
G1 X112.149 Y83.278 E35.79111
G1 X113.830 Y84.640 E36.04805
G1 X115.360 Y86.170 E36.30501
G1 X116.722 Y87.851 E36.56195
G1 X117.900 Y89.665 E36.81890
G1 X118.882 Y91.593 E37.07585
G1 X119.658 Y93.613 E37.33279
G1 X120.217 Y95.703 E37.58973
G1 X120.556 Y97.839 E37.84668
G1 X120.669 Y100.000 E38.10363
G1 X120.556 Y102.161 E38.36057
G1 X120.217 Y104.297 E38.61752
G1 X119.658 Y106.387 E38.87447
G1 X118.882 Y108.407 E39.13141
G1 X117.900 Y110.335 E39.38836
G1 X116.722 Y112.149 E39.64531
G1 X115.360 Y113.830 E39.90225
G1 X114.638 Y114.553 E40.02359
G1 X115.100 Y115.100 F7800.000
G1 X114.309 Y115.892 E40.15653 F1800.000
G1 X112.569 Y117.300 E40.42235
G1 X110.692 Y118.519 E40.68819
G1 X108.698 Y119.536 E40.95403
G1 X106.608 Y120.338 E41.21987
G1 X104.446 Y120.917 E41.48570
G1 X102.235 Y121.267 E41.75154
G1 X100.000 Y121.384 E42.01738
G1 X97.765 Y121.267 E42.28321
G1 X95.554 Y120.917 E42.54905
G1 X93.392 Y120.338 E42.81488
G1 X91.302 Y119.536 E43.08072
G1 X89.308 Y118.519 E43.34656
G1 X87.431 Y117.300 E43.61240
G1 X85.691 Y115.892 E43.87822
G1 X84.108 Y114.309 E44.14408
G1 X82.700 Y112.569 E44.40990
G1 X81.481 Y110.692 E44.67574
G1 X80.464 Y108.698 E44.94158
G1 X79.662 Y106.608 E45.20741
G1 X79.083 Y104.446 E45.47325
G1 X78.733 Y102.235 E45.73909
G1 X78.616 Y100.000 E46.00492
G1 X78.733 Y97.765 E46.27076
G1 X79.083 Y95.554 E46.53660
G1 X79.662 Y93.392 E46.80243
G1 X80.464 Y91.302 E47.06827
G1 X81.481 Y89.308 E47.33410
G1 X82.700 Y87.431 E47.59994
G1 X84.108 Y85.691 E47.86577
G1 X85.691 Y84.108 E48.13162
G1 X87.431 Y82.700 E48.39745
G1 X89.308 Y81.481 E48.66329
G1 X91.302 Y80.464 E48.92913
G1 X93.392 Y79.662 E49.19496
G1 X95.554 Y79.083 E49.46080
G1 X97.765 Y78.733 E49.72664
G1 X100.000 Y78.616 E49.99247
G1 X102.235 Y78.733 E50.25831
G1 X104.446 Y79.083 E50.52415 F1800.000
G1 X106.608 Y79.662 E50.78998
G1 X108.698 Y80.464 E51.05582
G1 X110.692 Y81.481 E51.32165
G1 X112.569 Y82.700 E51.58749
G1 X114.309 Y84.108 E51.85332
G1 X115.892 Y85.691 E52.11917
G1 X117.300 Y87.431 E52.38500
G1 X118.519 Y89.308 E52.65084
G1 X119.536 Y91.302 E52.91668
G1 X120.338 Y93.392 E53.18251
G1 X120.917 Y95.554 E53.44835
G1 X121.267 Y97.765 E53.71418
G1 X121.384 Y100.000 E53.98002
G1 X121.267 Y102.235 E54.24586
G1 X120.917 Y104.446 E54.51169
G1 X120.338 Y106.608 E54.77753
G1 X119.536 Y108.698 E55.04336
G1 X118.519 Y110.692 E55.30920
G1 X117.300 Y112.569 E55.57504
G1 X115.892 Y114.309 E55.84087
G1 X115.143 Y115.058 E55.96665
G1 X115.605 Y115.605 F7800.000
G1 X114.787 Y116.423 E56.10404 F1800.000
G1 X112.990 Y117.879 E56.37876
G1 X111.050 Y119.139 E56.65349
G1 X108.989 Y120.189 E56.92821
G1 X106.829 Y121.018 E57.20294
G1 X104.595 Y121.617 E57.47766
G1 X102.310 Y121.978 E57.75239
G1 X100.000 Y122.099 E58.02712
G1 X97.690 Y121.978 E58.30184
G1 X95.405 Y121.617 E58.57657
G1 X93.171 Y121.018 E58.85130
G1 X91.011 Y120.189 E59.12602
G1 X88.950 Y119.139 E59.40075
G1 X87.010 Y117.879 E59.67548
G1 X85.213 Y116.423 E59.95020
G1 X83.577 Y114.787 E60.22494
G1 X82.121 Y112.990 E60.49966
G1 X80.861 Y111.050 E60.77439
G1 X79.811 Y108.989 E61.04911
G1 X78.982 Y106.829 E61.32384
G1 X78.383 Y104.595 E61.59857
G1 X78.022 Y102.310 E61.87329
G1 X77.901 Y100.000 E62.14802
G1 X78.022 Y97.690 E62.42275
G1 X78.383 Y95.405 E62.69747
G1 X78.982 Y93.171 E62.97220
G1 X79.811 Y91.011 E63.24692
G1 X80.861 Y88.950 E63.52165
G1 X82.121 Y87.010 E63.79638
G1 X83.577 Y85.213 E64.07110
G1 X85.213 Y83.577 E64.34584
G1 X87.010 Y82.121 E64.62056
G1 X88.950 Y80.861 E64.89529
G1 X91.011 Y79.811 E65.17001
G1 X93.171 Y78.982 E65.44474
G1 X95.405 Y78.383 E65.71947
G1 X97.690 Y78.022 E65.99419
G1 X100.000 Y77.901 E66.26892
G1 X102.310 Y78.022 E66.54365
G1 X104.595 Y78.383 E66.81837 F1800.000
G1 X106.829 Y78.982 E67.09310
G1 X108.989 Y79.811 E67.36782
G1 X111.050 Y80.861 E67.64255
G1 X112.990 Y82.121 E67.91728
G1 X114.787 Y83.577 E68.19200
G1 X116.423 Y85.213 E68.46674
G1 X117.879 Y87.010 E68.74146
G1 X119.139 Y88.950 E69.01619
G1 X120.189 Y91.011 E69.29092
G1 X121.018 Y93.171 E69.56564
G1 X121.617 Y95.405 E69.84037
G1 X121.978 Y97.690 E70.11509
G1 X122.099 Y100.000 E70.38982
G1 X121.978 Y102.310 E70.66455
G1 X121.617 Y104.595 E70.93927
G1 X121.018 Y106.829 E71.21400
G1 X120.189 Y108.989 E71.48872
G1 X119.139 Y111.050 E71.76345
G1 X117.879 Y112.990 E72.03818
G1 X116.423 Y114.787 E72.31290
G1 X115.648 Y115.563 E72.44313
G1 X115.219 Y115.502 F7800.000
G1 X119.733 Y104.555 F7800.000
G1 X110.174 Y94.996 E74.05164 F1800.000
G1 X110.790 Y96.624 F7800.000
G1 X119.519 Y105.353 E75.52056 F1800.000
G1 X119.305 Y106.151 E75.61887
G1 X111.091 Y97.937 E77.00113
G1 X111.227 Y99.085 E77.13870
G1 X119.042 Y106.899 E78.45370
G1 X118.761 Y107.631 E78.54689
G1 X111.253 Y100.122 E79.81034
G1 X111.199 Y101.080 E79.92447
G1 X118.477 Y108.358 E81.14922
